packages/astro-components-stencil/src/icons/flip-to-front.svg

<svg xmlns="http://www.w3.org/2000/svg" viewBox="0 0 24 24"><g xmlns="http://www.w3.org/2000/svg" id="flip-to-front" fill-rule="nonzero">
            <path d="M3 13h2v-2H3v2zm0 4h2v-2H3v2zm2 4v-2H3a2 2 0 002 2zM3 9h2V7H3v2zm12 12h2v-2h-2v2zm4-18H9a2 2 0 00-2 2v10a2 2 0 002 2h10c1.1 0 2-.9 2-2V5c0-1.1-.9-2-2-2zm-1 12h-8c-.55 0-1-.45-1-1V6c0-.55.45-1 1-1h8c.55 0 1 .45 1 1v8c0 .55-.45 1-1 1zm-7 6h2v-2h-2v2zm-4 0h2v-2H7v2z"/>
        </g></svg>

<svg width="24" height="24" viewBox="0 0 24 24" fill="none" xmlns="http://www.w3.org/2000/svg">
<path fill-rule="evenodd" clip-rule="evenodd" d="M19 3H9C7.89 3 7 3.9 7 5V15C7 16.1 7.89 17 9 17H19C20.1 17 21 16.1 21 15V5C21 3.9 20.1 3 19 3ZM3 9H5V7H3V9ZM3 13H5V11H3V13ZM3 17H5V15H3V17ZM5 19V21C3.89 21 3 20.1 3 19H5ZM17 21H15V19H17V21ZM10 15H18C18.55 15 19 14.55 19 14V6C19 5.45 18.55 5 18 5H10C9.45 5 9 5.45 9 6V14C9 14.55 9.45 15 10 15ZM11 21H13V19H11V21ZM9 21H7V19H9V21Z" fill="black"/>
</svg>
